X: 24007
T: Log Drivers
R: slide
M: 12/8
K: Gmajor
D/D/D/|D B G|D2 D/D/|E c A|E2 E|
D F A|d d d|e d ^c|d z D|
D B G|D ^C D|E =c A|E2 E/E/|
D d3/2 d/|d =c A|B G G|d e f|
g2 d|B2 d|c2 e|e c2|
B d3/2 d/|d c B|A3/2 d/ d|d e f|
g2 d|B2 d|c2 e|e c3/2 c/|
B d d|d c B|A2 d|B G2|

